resources/svg/lock-key-bold.svg

<svg xmlns="http://www.w3.org/2000/svg" viewBox="0 0 256 256" fill="currentColor"><path d="M207.99414,76h-32V52a48,48,0,1,0-96,0V76h-32a20.02292,20.02292,0,0,0-20,20V208a20.02292,20.02292,0,0,0,20,20h160a20.02292,20.02292,0,0,0,20-20V96A20.02292,20.02292,0,0,0,207.99414,76Zm-104-24a24,24,0,1,1,48,0V76h-48Zm100,152h-152V100h152Zm-76-92a31.99519,31.99519,0,0,0-12,61.65674V180a12,12,0,1,0,24,0v-6.34326a31.99519,31.99519,0,0,0-12-61.65674Zm0,24a8,8,0,1,1-8,8A8.00917,8.00917,0,0,1,127.99414,136Z"/></svg>

<svg xmlns="http://www.w3.org/2000/svg" viewBox="0 0 256 256" fill="currentColor"><path d="M208,76H176V52a48,48,0,0,0-96,0V76H48A20.1,20.1,0,0,0,28,96V208a20.1,20.1,0,0,0,20,20H208a20.1,20.1,0,0,0,20-20V96A20.1,20.1,0,0,0,208,76ZM104,52a24,24,0,0,1,48,0V76H104ZM204,204H52V100H204Zm-76-92a32,32,0,0,0-12,61.7V180a12,12,0,0,0,24,0v-6.3A32,32,0,0,0,128,112Zm0,24a8,8,0,1,1-8,8A8,8,0,0,1,128,136Z"/></svg>
